!!!OTL: JETZUND BRICHT DIE NACHT HEREIN
!!!ARE: Europa, Mitteleuropa, Deutschland, Rheinland, Siebengebirge
!!!SCT: E0816C
!!!YEM: Copyright 1995, estate of Helmut Schaffrath.
**kern
*ICvox
*Ivox
*M4/4
*k[b-]
*F:
{4c
=1
8f
8g
8a
8b-
4cc
8cc
8cc
=2
8b-
8a
8b-
8cc
4a
8r}
{8cc
=3
8ff
8ee
4dd
4ee
4cc
=4
8dd
8cc
4bn
4cc
8r}
{8cc
=5
4.ff
8cc
4dd
4dd
=6
8cc
8dd
8cc
8b-
4a
8r}
{8a
=7
4cc
4cc
8dd
8cc
8b-
8a
=8
4b-
4cc
4a}
==
!!!AGN: Kilt - Lied
!!!ONB: ESAC (Essen Associative Code) Database: ERK2
!!!AMT: simple quadruple
!!!AIN: vox
!!!EED: Helmut Schaffrath
!!!EEV: 1.0
*-
